!!!!SEGMENT: pl-kk--kk-i-502--001_anonim--te-deum-laudamus.krn
!!!cenid: 18xx:1342
!!!COM: Anonim
!!!COM-rism: pe30004985
!!!CDT:
!!!CNT:
!!!OTL: Te Deum Laudamus
!!!PDT:
!!!AGN: Sacred
!!!SMS-siglum: PL-Kk
!!!SMS-shelfmark: Kk.I.502
!!!NIFC-rismID: 1001137448
!!!URL-scan: http://repozytorium.nifc.pl/skany/pl-kk-nut--i-502
!!!ONB-nifc:
!!!SMS-variant:
!!!SMS-altvar:
**kern	**text	**kern	**text
*part2	*	*part1	*part1
*staff2	*	*staff1	*staff1
*clefF4	*	*clefG2	*
*k[]	*	*k[]	*
*M2/1	*	*M2/1	*
=1	=1	=1	=1
0ryy	.	1e	Te
.	.	1g#X	De-
=2-	=2-	=2-	=2-
0ryy	.	1a	-um
=-	=-	=	=
.	.	1a	lau-
=3-	=3-	=3-	=3-
0ryy	.	1b	.
.	.	1cc	-da-
=4-	=4-	=4-	=4-
0ryy	.	1b	.
.	.	1a	-mus
=5||-	=5||-	=5||	=5||
*	*	*^	*
!	!	!	!LO:N:vis=4:xstem	!
0ryy	.	1e	1B	Te
!	!	!	!LO:N:vis=4:xstem	!
.	.	1g#X	1e 1d 1B	Do-
=6-	=6-	=6-	=6-	=6-
!	!	!	!LO:N:vis=4:xstem	!
0ryy	.	1a	1c	.
.	.	1a	1ryy	-mi-
=7-	=7-	=7-	=7-	=7-
!	!	!	!LO:N:vis=4:xstem	!
0ryy	.	1a	1f#X 1d	-num
!	!	!	!LO:N:vis=4:xstem	!
.	.	1g	1d	.
=8-	=8-	=8-	=8-	=8-
!	!	!	!LO:N:vis=4:xstem	!
0ryy	.	1a	1d	con-
!	!	!	!LO:N:vis=4:xstem	!
.	.	1b	1d	-fi-
=9-	=9-	=9-	=9-	=9-
!	!	!	!LO:N:vis=4:xstem	!
0ryy	.	1cc	0f#X	-te-
.	.	1b	.	.
=10-	=10-	=10-	=10-	=10-
!	!	!	!LO:N:vis=4:xstem	!
0ryy	.	1a	1d 1c	.
!	!	!	!LO:N:vis=4:xstem	!
.	.	1g	1B	-mur
*	*	*v	*v	*
!!LO:LB:g=original
=11-	=11-	=11-	=11-
0ryy	.	1cc	Te
.	.	1cc	e-
=12-	=12-	=12-	=12-
0ryy	.	1b	-ter-
.	.	1a	-num
=13-	=13-	=13	=13
0ryy	.	1b	Pa-
.	.	1a	-trem
=14-	=14-	=14	=14
0ryy	.	1e	om-
!	!	!LO:TX:a:t=|:problem	!
.	.	1g#X	-nis
=15-	=15-	=15-	=15-
0ryy	.	1a	ter-
.	.	1a	-re
=16-	=16-	=16-	=16-
0ryy	.	1g#	.
=-	=-	=	=
.	.	1a	ve-
=17-	=17-	=17-	=17-
0ryy	.	1b	-ne-
.	.	1cc	-ra-
=18-	=18-	=18-	=18-
0ryy	.	1b	.
.	.	1a	.
=19-	=19-	=19-	=19-
!	!	!LO:TX:a:t=P:problem:zamazana podwójna kreska taktowa	!
!	!	!LO:TX:a:t=P:problem:oddechy dopisane ołówkiem znakiem "x":global	!
0ryy	.	1g,	-tur
=||-	=||-	=||	=||
.	.	1cc	Ti-
=20-	=20-	=20-	=20-
0ryy	.	1cc	-bi
.	.	1cc	om-
=21-	=21-	=21-	=21-
0ryy	.	1b	-nes
.	.	1a	.
!!LO:LB:g=original
=22-	=22-	=22	=22
0ryy	.	1b	an-
.	.	1a	-ge-
=23-	=23-	=23-	=23-
0ryy	.	1a	-li
=-	=-	=	=
.	.	1e	Ti-
=24-	=24-	=24-	=24-
0ryy	.	1g#X	-bi
=-	=-	=	=
.	.	1a	ce-
=25-	=25-	=25-	=25-
0ryy	.	1a	-li
=-	=-	=	=
.	.	1a	et
=26-	=26-	=26-	=26-
0ryy	.	1a	u-
.	.	1b	-ni-
=27-	=27-	=27-	=27-
0ryy	.	1a	-ver-
.	.	1g	-se
=28-	=28-	=28	=28
0ryy	.	1a	Po-
.	.	1b	-te-
=29-	=29-	=29-	=29-
0ryy	.	1cc	-sta-
.	.	1b	.
=30-	=30-	=30-	=30-
0ryy	.	1a	.
.	.	1g,	-tes
!!LO:LB:g=original
=31-	=31-	=31	=31
0ryy	.	1cc	Ti-
.	.	1cc	-bi
=32-	=32-	=32-	=32-
0ryy	.	1cc	Che-
.	.	1cc	-ru-
=33-	=33-	=33-	=33-
0ryy	.	1b	-bim
.	.	1a	et
=34-	=34-	=34-	=34-
0ryy	.	1b	Se-
.	.	1a	-ra-
=35-	=35-	=35-	=35-
0ryy	.	1a	-phim
.	.	1e	in-
=36-	=36-	=36-	=36-
0ryy	.	1g#X	-ces-
.	.	1a	-sa-
=37-	=37-	=37-	=37-
0ryy	.	1a	-bi-
.	.	1a	-li
=38-	=38-	=38-	=38-
0ryy	.	1a	vo-
.	.	1gn	-ce
=39-	=39-	=39-	=39-
0ryy	.	1a	pro-
.	.	1b	.
=40-	=40-	=40-	=40-
!	!	!LO:SIC:v:l:s=cla	!
0ryy	.	1cc	-da-
.	.	1b	.
=41-	=41-	=41-	=41-
1ryy	.	1a	.
!!LO:LB:g=original
!LO:N:vis=4	!	!	!
1G 1GG\	.	1g,	-mant
=42	=42	=42	=42
*	*	*^	*
!LO:N:vis=4:xstem	!	!	!LO:N:vis=4:xstem	!
2AA	San-	1a	2e 2c	.
!LO:N:xstem	!	!	!LO:N:xstem	!
4BB	.	.	4g#X 4e 4d	.
!LO:N:xstem	!	!	!LO:N:xstem	!
4C	.	.	4a 4e 4A	.
!	!	!LO:TX:a:t=|:problem	!	!
8D\L	.	1b,	8fn 8B\L	.
8E\J	.	.	8g# 8d\J	.
!LO:N:vis=4:xstem	!	!	!LO:N:vis=4:xstem	!
2.AA	-ctus	.	2.a 2.e 2.c	.
=43-	=43-	=43-	=43-	=43-
!LO:N:vis=1:xstem	!	!	!LO:N:vis=4:xstem	!
2AA	San-	1a	2e 2c	.
!LO:N:xstem	!	!	!LO:N:xstem	!
4BB	.	.	4g#X 4e 4d	.
!LO:N:xstem	!	!	!LO:N:xstem	!
4C	.	.	4a 4e 4A	.
8D\L	.	1b	8fn 8B\L	.
8E\J	.	.	8g# 8d\J	.
!LO:N:vis=4:xstem	!	!	!LO:N:vis=4:xstem	!
2.AA	-ctus	.	2.a 2.e 2.c	.
=44-	=44-	=44-	=44-	=44-
!LO:N:vis=4:xstem	!	!	!LO:N:vis=4:xstem	!
1G 1GG\	San-	1dd	1b 1gny 1d	.
!LO:N:vis=4:xstem	!	!	!LO:N:vis=4:xstem	!
1D	-ctus	1a	2f 2d	.
!	!	!	!LO:N:vis=4:xstem	!
.	.	.	2b	.
=45-	=45-	=45-	=45-	=45-
!LO:N:vis=4:xstem	!	!	!LO:N:vis=4:xstem	!
1A 1D#X	Do-	1cc	1f	.
!LO:N:vis=4:xstem	!	!	!	!
!	!	!	!LO:N:vis=4:xstem	!
1G 1E	.	1b	1e	.
=46-	=46-	=46-	=46-	=46-
!LO:N:vis=8	!	!	!LO:N:vis=8	!
2A 2C\L	.	1a	2e\L	.
!LO:N:vis=8	!	!	!LO:N:vis=8	!
2F 2D\J	.	.	2c\J	.
!LO:N:vis=4:xstem	!	!	!LO:N:vis=4:xstem	!
1G 1GG	-mi-	1g	1B	.
=47-	=47-	=47-	=47-	=47-
1G 1GG	-nus	1g	1ryy	.
!LO:TX:t=P:problem:dźwięk 1D dopisany ołówkiem	!	!	!	!
!LO:N:vis=4:xstem	!	!	!LO:N:vis=4:xstem	!
1F	De-	1a	1d	.
=48-	=48-	=48-	=48-	=48-
!LO:N:vis=4:xstem	!	!	!LO:N:vis=4:xstem	!
1G#X	.	1b	1fn	.
!LO:N:vis=4:xstem	!	!	!LO:N:vis=4:xstem	!
1A	.	1cc	1f#X	.
=49-	=49-	=49-	=49-	=49-
!LO:N:vis=4:xstem	!	!	!LO:N:vis=4:xstem	!
1B	us	1b	1g	.
!!LO:LB:g=original
!	!	!	!LO:N:vis=4:xstem	!
1ryy	Sa	1a	1fny	Sa-
=50-	=50-	=50-	=50-	=50-
!	!	!	!LO:N:vis=4:xstem	!
0ryy	.	1g	1d	-ba-
.	.	1g,	1ryy	-oth
=51-	=51-	=51-	=51-	=51-
!	!	!	!LO:N:vis=4:xstem	!
0ryy	.	1cc	1a 1e 1c	Ple-
.	.	1cc	1ryy	-ni
*	*	*v	*v	*
=52-	=52-	=52-	=52-
0ryy	.	1cc	sunt
.	.	1cc	ce-
=53-	=53-	=53-	=53-
0ryy	.	1b	-li
.	.	1a	et
=54-	=54-	=54-	=54-
0ryy	.	1b	ter-
.	.	1a	-ra
=55-	=55-	=55-	=55-
0ryy	.	1e	Ma-
.	.	1g#X	-je-
=56-	=56-	=56-	=56-
0ryy	.	1a	-sta-
.	.	1a	-tis
=57-	=57-	=57-	=57-
0ryy	.	1a	glo-
.	.	1gn	-ria
=58-	=58-	=58-	=58-
0ryy	.	1a	tu-
.	.	1b	.
=59-	=59-	=59-	=59-
0ryy	.	1cc	.
.	.	1b	.
=60-	=60-	=60-	=60-
0ryy	.	1a	.
.	.	1g,	-a
!!LO:LB:g=original
=61-	=61-	=61-	=61-
0ryy	.	1cc	Te
.	.	1cc	glo-
=62-	=62-	=62-	=62-
0ryy	.	1b	.
.	.	1a	-ri-
=63-	=63-	=63-	=63-
0ryy	.	1b	-o-
.	.	1a	-sus
=64-	=64-	=64-	=64-
0ryy	.	1a	A-
.	.	1b	.
=65-	=65-	=65-	=65-
0ryy	.	1a	-po-
.	.	1g	-sto-
=66-	=66-	=66-	=66
0ryy	.	1a	-lo--
.	.	1b	-rum
=67-	=67-	=67-	=67-
0ryy	.	1cc	Cho-
.	.	1b	.
=68-	=68-	=68-	=68-
0ryy	.	1a	.
.	.	1g,	rus
=69-	=69-	=69	=69
0ryy	.	1cc	Te
.	.	1cc	pro-
=70-	=70-	=70-	=70-
0ryy	.	1b	.
.	.	1a	-phe-
!!LO:LB:g=original
=71-	=71-	=71-	=71-
0ryy	.	1b	-ta-
.	.	1a	-rum
=72-	=72-	=72-	=72-
0ryy	.	1a	lau-
.	.	1a	-da-
=73-	=73-	=73-	=73-
0ryy	.	1a	.
.	.	1gn	-bi-
=74-	=74-	=74-	=74-
0ryy	.	1a	.
.	.	1b	-lis
=75-	=75-	=75-	=75-
0ryy	.	1cc	nu-
.	.	1b	.
=76-	=76-	=76-	=76-
0ryy	.	1a	-me-
.	.	1g,	-rus
=77-	=77-	=77-	=77-
0ryy	.	1cc	Te
.	.	1cc	Mar-
=78-	=78-	=78-	=78-
0ryy	.	1cc	-ty-
.	.	1cc	-rum
=79-	=79-	=79-	=79-
0ryy	.	1b	can-
.	.	1a	-di-
=80-	=80-	=80-	=80-
0ryy	.	1b	-da-
.	.	1a	-tus
!!LO:LB:g=original
=81-	=81-	=81-	=81-
0ryy	.	1a	lau-
.	.	1gn	-dat
=82-	=82-	=82-	=82-
0ryy	.	1a	e-
.	.	1b	-xer-
=83-	=83-	=83-	=83-
0ryy	.	1cc	-ci-
.	.	1b	.
=84-	=84-	=84-	=84-
0ryy	.	1a	.
.	.	1g	-tus
=85-	=85-	=85-	=85-
0ryy	.	1g	.
.	.	1cc	Te
=86-	=86-	=86-	=86-
0ryy	.	1cc	per
.	.	1cc	or-
=87-	=87-	=87-	=87-
0ryy	.	1b	-bem
.	.	1a	ter-
=88-	=88-	=88-	=88-
0ryy	.	1b	-ra-
.	.	1a	-rum
=89-	=89-	=89-	=89-
0ryy	.	1e	San-
.	.	1g#X	-cta
=90-	=90-	=90-	=90-
0ryy	.	1a	con-
.	.	1a	-fi-
=91-	=91-	=91-	=91-
0ryy	.	1a	-te-
!!LO:LB:g=original
.	.	1gn	-tur
=92-	=92-	=92-	=92-
0ryy	.	1a	Ec-
.	.	1b	.
=93-	=93-	=93-	=93-
0ryy	.	1cc	-cle-
.	.	1b	.
=94-	=94-	=94-	=94-
0ryy	.	1a	.
.	.	1g	-si-
=95-	=95-	=95-	=95-
*	*	*^	*
0ryy	.	1g	1ryy	-a
=-	=-	=	=	=
!	!	!	!LO:N:vis=4:xstem	!
.	.	1a	2c	Pa-
!	!	!	!LO:N:xstem	!
.	.	.	4g#X 4d	.
!	!	!	!LO:N:xstem	!
.	.	.	4a 4c	.
=96-	=96-	=96-	=96-	=96-
!	!	!	!LO:N:vis=4:xstem	!
0ryy	.	1b	2gny 2d	.
!	!	!	!LO:N:vis=4:xstem	!
.	.	.	2a 2c	-trem
!	!	!	!LO:N:vis=4:xstem	!
.	.	1a	1d	in
=97-	=97-	=97-	=97-	=97-
0ryy	.	1a	1ryy	men-
!	!	!	!LO:N:vis=4:xstem	!
.	.	1g	1d	-se
=98-	=98-	=98-	=98-	=98-
!	!	!	!LO:N:vis=4:xstem	!
0ryy	.	1a	1d	Ma-
!	!	!	!LO:N:vis=4:xstem	!
.	.	1b	1fn	-je-
=99-	=99-	=99-	=99-	=99-
!	!	!	!LO:N:vis=4:xstem	!
0ryy	.	1cc	1f#X	-sta-
!	!	!	!LO:N:vis=4:xstem	!
.	.	1b	1g	.
=100-	=100-	=100-	=100-	=100-
!	!	!	!LO:N:vis=4:xstem	!
0ryy	.	1a	1f#y	.
!	!	!	!LO:N:vis=4:xstem	!
.	.	1g	1d	-tis
*	*	*v	*v	*
!!LO:LB:g=original
=101-	=101-	=101-	=101-
0ryy	.	1cc	Ve-
.	.	1cc	-ne-
=102-	=102-	=102-	=102-
0ryy	.	1cc	-ran-
.	.	1cc	-dum
=103-	=103-	=103-	=103-
0ryy	.	1b	Tu-
.	.	1a	-um
=104-	=104-	=104-	=104-
0ryy	.	1b	ve-
.	.	1a	-rum
=105-	=105-	=105-	=105-
0ryy	.	1a	et
.	.	1a	u-
=106-	=106-	=106-	=106-
0ryy	.	1g	-ni-
.	.	1a	-cum
=107-	=107-	=107-	=107-
0ryy	.	1b	Fi-
.	.	1cc	.
=108-	=108-	=108-	=108-
0ryy	.	1b	.
.	.	1a	.
=109-	=109-	=109-	=109-
0ryy	.	1g	li-
.	.	1g	-um
!!LO:PB:g=original
=110-	=110-	=110-	=110-
*	*	*^	*
!	!	!	!LO:TX:a:t=P:problem:tekst pod dolną pięciolinią, ale nie wyświetla się ze względu na pauzy	!
!LO:N:vis=4:xstem	!	!	!LO:N:vis=4:xstem	!
1E 1AA	.	1a	1c	San-
1ryy	.	1a	1ryy	-ctum
=111-	=111-	=111-	=111-	=111-
!LO:N:vis=4:xstem	!	!	!LO:N:vis=4:xstem	!
2E 2BB	.	1g#X	2d	quo-
!LO:N:vis=4:xstem	!	!	!LO:N:vis=4:xstem	!
2E 2C	.	.	2a 2e	.
!LO:N:vis=8	!	!	!LO:N:vis=8	!
2D\L	.	1b	2fn 2B\L	.
!LO:N:vis=8	!	!	!LO:N:vis=8	!
2E\J	.	.	2gny 2d\J	.
=112-	=112-	=112-	=112-	=112-
!	!	!LO:TX:a:t=P:problem:odtąd oddechy zaznaczone kreską	!LO:N:vis=4:xstem	!
1AA	.	1a,	1e 1c	-que
!LO:N:vis=4:xstem	!	!	!LO:N:vis=4:xstem	!
1E 1AA	.	1e	1c	Pa-
=113-	=113-	=113-	=113-	=113-
1ryy	.	1a	1ryy	-ra-
!LO:N:vis=4:xstem	!	!	!LO:N:vis=4:xstem	!
1E 1BB	.	1g#X	1d	-cli-
=114-	=114-	=114-	=114-	=114-
!LO:N:vis=4:xstem	!	!	!LO:N:vis=4:xstem	!
1E 1C	.	1a	1e	-tum
!LO:N:vis=4:xstem	!	!	!LO:N:vis=4:xstem	!
1D	.	1b	1fn 1B	Spi-
=115-	=115-	=115-	=115-	=115-
!LO:N:vis=4:xstem	!	!	!LO:N:vis=4:xstem	!
1E	.	1g#	1d	-ri-
!LO:N:vis=4:xstem	!	!	!LO:N:vis=4:xstem	!
1E 1AA	.	1a,	1e 1c	-tum
=116-	=116-	=116-	=116-	=116-
!LO:N:vis=4:xstem	!	!	!LO:N:vis=4:xstem	!
1E 1AA	.	1e	1c	Tu
1ryy	.	1a	1ryy	rex
=117-	=117-	=117-	=117-	=117-
!	!	!	!LO:N:vis=4:xstem	!
1ryy	.	1a	1c	glo-
!LO:N:vis=4:xstem	!	!	!LO:N:vis=4:xstemL	!
1E 1BB	.	1g#X	1d	-ri-
=118-	=118-	=118-	=118-	=118-
!LO:N:vis=4:xstem	!	!	!LO:N:vis=4:xstem	!
1E 1C	.	1a	1e	-e
!LO:N:vis=8	!	!	!LO:N:vis=8	!
2D\L	.	1b	2fn 2B\L	Chri-
!LO:N:vis=8	!	!	!LO:N:vis=8	!
2E\J	.	.	2g#X 2d\J	.
=119-	=119-	=119-	=119-	=119-
!LO:N:vis=4:xstem	!	!	!LO:N:vis=4:xstem	!
1AA	.	1a	1e 1c	-ste
!	!	!	!LO:N:vis=4:xstem	!
1Gny 1GG	.	1b	1gny 1d	Tu
=120-	=120-	=120-	=120-	=120-
1ryy	.	1cc	1ryy	.
!LO:N:vis=4:xstem	!	!	!LO:N:vis=4:xstem	!
1G#X 1GG#X	.	1dd	1b 1fn	pa-
!!LO:LB:g=original
=121-	=121-	=121-	=121-	=121-
!LO:N:vis=4:xstem	!	!	!LO:N:vis=4:xstem	!
1A 1AA	.	1cc	1a 1e	-tris
!LO:N:vis=4:xstem	!	!	!LO:N:vis=4:xstem	!
1A 1E 1AA	.	1cc	1e 1c	sem-
=122-	=122-	=122-	=122-	=122-
1ryy	.	1cc	2ryy	-piter-
!	!	!	!LO:N:vis=4:xstem	!
.	.	.	2cc	.
!LO:N:vis=4:xstem	!	!	!LO:N:vis=4:xstem	!
1G#X 1D	.	1b	1f	-nus
=123-	=123-	=123-	=123-	=123-
!LO:N:vis=4:xstem	!	!	!LO:N:vis=4:xstem	!
1A 1C	.	1a	1e	es
!LO:N:vis=8	!	!	!LO:N:vis=8	!
2A 2D\L	.	1b	2f\L	fi-
!LO:N:vis=8	!	!	!LO:N:vis=8	!
2G#X 2E\J	.	.	2d\J	.
=124-	=124-	=124-	=124-	=124-
1ryy	.	1a	1ryy	-li-
!	!	!	!LO:N:vis=4:xstem	!
1A 1AA	.	1a	1c	-us
=125-	=125-	=125-	=125-	=125-
!LO:N:vis=1	!	!	!LO:N:vis=4:xstem	!
1E 1AA	.	1a	1c	Tu
1ryy	.	1a	1ryy	ad
=126-	=126-	=126-	=126-	=126-
0ryy	.	1a	0ryy	li-
.	.	1a	.	-be-
=127-	=127-	=127-	=127-	=127-
0ryy	.	1a	0ryy	-ran-
.	.	1a	.	-dum
=128-	=128-	=128-	=128-	=128-
0ryy	.	1a	0ryy	sus-
.	.	1a	.	-cep-
=129-	=129-	=129-	=129-	=129-
!LO:N:vis=4:xstem	!	!	!LO:N:vis=4:xstem	!
1E 1BB	.	1g#X	1d	-tu-
!LO:N:vis=4:xstem	!	!	!LO:N:vis=4:xstem	!
1E 1AA	.	1a	1c	-rus
=130-	=130-	=130-	=130-	=130-
!LO:N:vis=4:xstem	!	!	!LO:N:vis=4:xstem	!
1E 1GG#X	.	1b	1d	ho-
1ryy	.	1a	1ryy	-mi-
!!LO:LB:g=original
=131-	=131-	=131-	=131-	=131-
!	!	!	!LO:N:vis=4:xstem	!
1E 1AA	.	1a	1c	-nem
1ryy	.	1e	1ryy	non
=132-	=132-	=132-	=132-	=132
0ryy	.	1f#X	0ryy	ho-
.	.	1g#X	.	-ru-
=133-	=133-	=133-	=133-	=133-
0ryy	.	1a	0ryy	-i-
.	.	1a	.	-sti
=134-	=134-	=134-	=134-	=134-
1ryy	.	1a	1ryy	vir-
!LO:N:vis=4:xstem	!	!	!LO:N:vis=4:xstem	!
1E 1BB	.	1g#X	1d	-gi-
=135-	=135-	=135-	=135-	=135-
!LO:N:vis=4:xstem	!	!	!LO:N:vis=4:xstem	!
1E 1AA	.	1a	1c	-nis
!LO:N:vis=4:xstem	!	!	!LO:N:vis=4:xstem	!
1G#X 1E	.	1b	2d	u-
!	!	!	!LO:N:vis=4:xstem	!
.	.	.	2g#X	.
=136-	=136-	=136-	=136-	=136-
!LO:N:vis=4:xstem	!	!	!	!
1A 1AA	.	1a	1ryy	-rum
!	!	!	!LO:N:vis=4:xstem	!
1E 1AA	.	1a	1c	Tu
=137-	=137-	=137-	=137-	=137-
!	!	!	!LO:N:vis=4:xstem	!
0ryy	.	1a	1c	de-
.	.	1a	1ryy	-vic-
=138-	=138-	=138-	=138-	=138-
!	!	!	!LO:N:vis=4:xstem	!
0ryy	.	1a	1c	-to
!	!	!	!LO:N:vis=4:xstem	!
.	.	1a	1c	mor-
=139-	=139-	=139-	=139-	=139-
!LO:N:vis=4:xstem	!	!	!LO:N:vis=4:xstem	!
1E 1BB	.	1g#X	1d	-tis
!!LO:LB:g=original
!LO:N:vis=4:xstem	!	!	!LO:N:vis=4:xstem	!
1E 1AA	.	1a	1c	a-
=140-	=140-	=140-	=140-	=140-
!LO:N:vis=4:xstem	!	!	!LO:N:vis=4:xstem	!
1G#X 1E	.	1b	1d	-cu-
1ryy	.	1g#	1ryy	-le-
=141-	=141-	=141-	=141-	=141-
!LO:N:vis=4:xstem	!	!	!LO:N:vis=4:xstem	!
1A 1AA	.	1a	1c	-o
!LO:N:vis=4:xstem	!	!	!LO:N:vis=4:xstem	!
1E 1AA	.	1e	1c	a-
=142-	=142-	=142-	=142-	=142-
0ryy	.	1a	0ryy	-pe-
.	.	1a	.	-ru-
=143-	=143-	=143-	=143-	=143-
0ryy	.	1a	0ryy	-is-
.	.	1a	.	-ti
=144-	=144-	=144-	=144-	=144-
1ryy	.	1a	1ryy	cru-
!LO:N:vis=4:xstem	!	!	!LO:N:vis=4:xstem	!
1F 1C	.	1b	1d	-den-
=145-	=145-	=145-	=145-	=145-
1ryy	.	1a	1ryy	-ti-
!LO:N:vis=4:xstem	!	!	!LO:N:vis=4:xstem	!
1Gny 1BB	.	1gn	1d	-bus
=146-	=146-	=146-	=146-	=146-
!LO:N:vis=4:xstem	!	!	!LO:N:vis=4:xstem	!
1D	.	1a	1fny 1d	re-
!LO:N:vis=4:xstem	!	!	!LO:N:vis=4:xstem	!
1G 1GGny	.	1b	1g 1d	-gna
=147-	=147-	=147-	=147-	=147-
!LO:N:vis=4:xstem	!	!	!LO:N:vis=4:xstem	!
1E 1EE	.	1cc	1g 1c	ce-
!LO:N:vis=4:xstem	!	!	!LO:N:vis=4:xstem	!
1G 1D	.	1g	1d	-lo-
=148-	=148-	=148-	=148-	=148-
!LO:N:vis=4:xstem	!	!	!LO:N:vis=4:xstem	!
1GG#X	.	1fn	1d 1B	.
!LO:N:vis=4:xstem	!	!	!LO:N:vis=4:xstem	!
1AA	.	1e	1c#X	-rum
=149-	=149-	=149-	=149-	=149-
!LO:N:vis=4:xstem	!	!	!LO:N:vis=4:xstem	!
1E 1AA	.	1e	1cn	Tu
1ryy	.	1a	1ryy	ad
=150-	=150-	=150-	=150-	=150-
0ryy	.	1a	0ryy	dex-
.	.	1a	.	-te-
!!LO:LB:g=original
=151-	=151-	=151-	=151-	=151-
1ryy	.	1a	1ryy	-ram
!LO:N:vis=4:xstem	!	!	!LO:N:vis=4:xstem	!
1E 1BB	.	1g#X	1d	De-
=152-	=152-	=152-	=152-	=152-
!LO:N:vis=4:xstem	!	!	!LO:N:vis=4:xstem	!
1E 1AA	.	1a	1c	-i
!LO:N:vis=4:xstem	!	!	!LO:N:vis=4:xstem	!
1G#X 1E	.	1b	1d	se-
=153-	=153-	=153-	=153-	=153-
!LO:N:vis=4:xstem	!	!	!LO:N:vis=4:xstem	!
1A 1AA	.	1a	1e 1c	-des
!LO:N:vis=4:xstem	!	!	!LO:N:vis=4:xstem	!
1Gny 1GGny	.	1b	1gny 1d	in
=154-	=154-	=154-	=154-	=154-
1ryy	.	1cc	1ryy	glo-
8G 8GG\L	.	1dd	8g 8d\L	-ri-
8G#X 8GG#X\J	.	.	8b 8fn\J	.
!	!	!	!LO:N:vis=4:xstem	!
2.ryy	.	.	2.cc	.
=155-	=155-	=155-	=155-	=155-
!LO:N:vis=4:xstem	!	!	!LO:N:vis=4:xstem	!
1A 1AA/	.	1cc	1a 1e	-a
!LO:N:vis=8	!	!	!LO:N:vis=8	!
2A 2D\L	.	1b	2f\L	Pa-
!LO:N:vis=8	!	!	!LO:N:vis=8	!
2G#X 2E\J	.	.	2d\J	.
=156-	=156-	=156-	=156-	=156-
!LO:N:vis=4:xstem	!	!	!LO:N:vis=4:xstem	!
1A 1AA	.	1a	1c	-tris
!LO:N:vis=4:xstem	!	!	!LO:N:vis=4:xstem	!
1E 1AA	.	1a	1c	Ju-
=157-	=157-	=157-	=157-	=157-
0ryy	.	1a	0ryy	-dex
.	.	1a	.	cre-
=158-	=158-	=158-	=158-	=158-
0ryy	.	1a	0ryy	-de-
.	.	1a	.	-ris
=159-	=159-	=159-	=159-	=159-
!LO:N:vis=4:xstem	!	!	!LO:N:vis=4:xstem	!
1E 1AA	.	1a	1c	es-
!LO:N:vis=4:xstem	!	!	!LO:N:vis=4:xstem	!
1E 1BB	.	1g#X	1d	-se
=160-	=160-	=160-	=160-	=160-
!LO:N:vis=4:xstem	!	!	!LO:N:vis=4:xstem	!
1E 1AA	.	1a	1c	ven-
!LO:N:vis=4:xstem	!	!	!LO:N:vis=4:xstem	!
1G#X 1E	.	1b	1d	-tu-
=161-	=161-	=161-	=161-	=161-
*^	*	*	*	*
!LO:N:vis=4:xstem	!LO:N:vis=4:xstem	!	!	!LO:N:vis=4:xstem	!
1A	1AA	.	1a	1c	-rus
!LO:N:vis=4:xstem	!	!	!	!LO:N:vis=4:xstem	!
1E	1AA	.	1e	1c	Te
*v	*v	*	*	*	*
*	*	*v	*v	*
=162-	=162-	=162-	=162-
0ryy	.	1a	er-
.	.	1a	-go
!!LO:LB:g=original
=163-	=163-	=163-	=163-
0ryy	.	1a	que-
.	.	1a	-su-
=164-	=164-	=164-	=164-
0ryy	.	1a	-mus
.	.	1a	tu-
=165-	=165-	=165-	=165-
*	*	*^	*
1ryy	.	1a	1ryy	-is
!LO:N:vis=4:xstem	!	!	!LO:N:vis=4:xstem	!
1E 1AA	.	1a	1c	fa-
=166-	=166-	=166-	=166-	=166-
!LO:N:vis=4:xstem	!	!	!LO:N:vis=4:xstem	!
1E 1BB	.	1g#X	1d	-mu-
!LO:N:vis=4:xstem	!	!	!LO:N:vis=4:xstem	!
1E 1AA	.	1a	1c	-lis
=167-	=167-	=167-	=167-	=167-
!LO:N:vis=4:xstem	!	!	!LO:N:vis=4:xstem	!
1G#X 1E	.	1b	1d	sub-
1ryy	.	1g#X	1ryy	-ve-
=168-	=168-	=168-	=168-	=168-
!LO:N:vis=4:xstem	!	!	!LO:N:vis=4:xstem	!
1A 1AA	.	1a	1c	-ni
!LO:N:vis=4:xstem	!	!	!LO:N:vis=4:xstem	!
1E 1AA	.	1e	1c	quos
*	*	*v	*v	*
=169-	=169-	=169-	=169-
0ryy	.	1a	pre-
.	.	1a	-ti-
=170-	=170-	=170-	=170-
0ryy	.	1a	-o-
.	.	1a	-so
=171-	=171-	=171-	=171-
*	*	*^	*
!LO:N:vis=4:xstem	!	!	!LO:N:vis=4:xstem	!
1F#X 1C	.	1b	1d	san-
1ryy	.	1a	1ryy	-qui-
=172-	=172-	=172-	=172-	=172-
!LO:N:vis=4:xstem	!	!	!	!
1Gny 1BB	.	1gny	1ryy	-ne
!LO:N:vis=4:xstem	!	!	!LO:N:vis=4:xstem	!
1D	.	1a	1f 1d	re-
=173-	=173-	=173-	=173-	=173-
!LO:N:vis=4:xstem	!	!	!LO:N:vis=4:xstem	!
1G 1GGny	.	1b	1g 1d	-de-
!LO:N:vis=4:xstem	!	!	!LO:N:vis=4:xstem	!
1E 1EE	.	1cc	1g 1c	-mi-
=174-	=174-	=174-	=174-	=174-
!LO:N:vis=4:xstem	!	!	!LO:N:vis=4:xstem	!
1BB	.	1g	1d 1G	.
!LO:N:vis=4:xstem	!	!	!LO:N:vis=4:xstem	!
1GG#X	.	1f	1d 1B	.
=175-	=175-	=175-	=175-	=175-
!LO:N:vis=4:xstem	!	!	!LO:N:vis=4:xstem	!
1AA	.	1e	1c#X 1A	-sti
!!LO:LB:g=original
!LO:TX:a:t=P:problem:zamiast łuku powinna być ligatura	!	!	!	!
!LO:N:vis=4:xstem	!	!	!LO:N:vis=4:xstem	!
(1G 1D (1GGny	.	1fn	1B	Ae-
=176-	=176-	=176-	=176-	=176-
1ryy	.	1f	1ryy	-ter-
2ryy	.	1f	2ryy	-na
!LO:N:vis=4:xstem	!	!	!LO:N:vis=4:xstem	!
2G) 2C 2GG)	.	.	2e 2c#	.
=177-	=177-	=177-	=177-	=177-
!LO:N:vis=4:xstem	!	!	!LO:N:vis=4:xstem	!
1G 1GG	.	1d	1B	fac
!LO:N:vis=1	!	!	!LO:N:vis=4:xstem	!
1E 1EE	.	1g	1cny 1G	cum
*	*	*v	*v	*
=178-	=178-	=178-	=178-
0ryy	.	1g	Sanc-
.	.	1g	-tis
=179-	=179-	=179-	=179-
*	*	*^	*
!	!	!	!LO:N:vis=4:xstem	!
1C 1CC	.	1g	1e 1c	tu-
1ryy	.	1g	1ryy	-is
*	*	*v	*v	*
=180-	=180-	=180-	=180-
0ryy	.	1g	in
.	.	1g	glo-
=181-	=181-	=181-	=181-
0ryy	.	1g	-ri-
.	.	1g	-a
=182-	=182-	=182-	=182-
*	*	*^	*
!LO:N:vis=4:xstem	!	!	!LO:N:vis=4:xstem	!
1Fny 1FF	.	1a	1c 1A	nu-
!LO:N:vis=4:xstem	!	!	!LO:N:vis=4:xstem	!
1E	.	1g	1c#X 1A	.
=183-	=183-	=183-	=183-	=183-
!LO:N:vis=4:xstem	!	!	!LO:N:vis=4:xstem	!
1D	.	1f	1d 1A	-me-
!LO:N:vis=4:xstem	!	!	!LO:N:vis=4:xstem	!
1GG#X	.	1f	1d 1B	-ra-
=184-	=184-	=184-	=184-	=184-
!LO:N:vis=4:xstem	!	!	!LO:N:vis=4:xstem	!
1AA	.	1e	1c#X	-ri
*	*	*v	*v	*
==	==	==	==
*-	*-	*-	*-
!!!system-decoration: {s1,s2}
!!!RDF**kern: > = above
!!!ENC: Zofia Niedbalska
!!!END: 2021-01-06
!!!ENC: Krzysztof Stępień
!!!END: 2020-12-30
